X: 31496
T: Paddy Whack
R: jig
M: 6/8
K: Dmajor
D|DFA dcd|BAG GFE|DFA Bcd|cAA A2 B/2c/2|
dfd ecA|GAB AFD|DEF GEA|FDD D2 G|
FEF GGB|AFD E2 D|DFA Bcd|cAA A2 B/2c/2|
dfd ecA|BGB AFD|DEF GEA|FDD D z z:|

